src/16/actions/labplot-xy-plot-two-axes-centered.svg

<svg xmlns="http://www.w3.org/2000/svg" width="16" height="16" viewBox="0 0 16 16">
 <defs>
  <style id="current-color-scheme" type="text/css">
   .ColorScheme-Text { color:#5d656b; } .ColorScheme-Highlight { color:#5294e2; }
  </style>
 </defs>
 <path style="fill:currentColor" class="ColorScheme-Text" d="M 15 0 L 15 2.40625 L 11 6.078125 L 11 8 L 8 8 L 8 1 L 7 1 L 7 8 L 0 8 L 0 9 L 7 9 L 7 12.242188 L 4 14.996094 L 4 15 L 0 15 L 0 16 L 4.3847656 16 L 7 13.599609 L 7 16 L 8 16 L 8 12.681641 L 12 9.0097656 L 12 9 L 15 9 L 15 8 L 12 8 L 12 6.5175781 L 16 2.8457031 L 16 0 L 15 0 z M 8 9 L 10.53125 9 L 8 11.324219 L 8 9 z"/>
</svg>

<svg xmlns="http://www.w3.org/2000/svg" width="16" height="16"><defs><style id="current-color-scheme" type="text/css"></style></defs><path d="M15 0v2.406l-4 3.672V8H8V1H7v7H0v1h7v3.242l-3 2.754V15H0v1h4.385L7 13.6V16h1v-3.318l4-3.672V9h3V8h-3V6.518l4-3.672V0h-1zM8 9h2.531L8 11.324V9z" fill="currentColor" color="#5d656b"/></svg>
